Obsidian-SemiLight/actions/22s/timeline-use-zone-on.svg

<svg viewBox="0 0 22 22" xmlns="http://www.w3.org/2000/svg"><path d="m7 11-3 3 3 3zm8 0v6l3-3zm-8.9765625-6.0058594v4h-1v-2h-1v2h-1v1h16.0000005v-1h-.023438v-1.9941406h-1v1.9941406h-.976562v-4h-1v4h-1v-2h-1v2h-1v-2h-1v2h-1v-2h-1v2h-1.0000005v-2h-1v2h-1v-4zm-3.0234375 6.0058594h1v6h-1zm15 0h1v6h-1z" fill="#4d4d4d"/></svg>

<svg xmlns="http://www.w3.org/2000/svg" viewBox="0 0 22 22">
  <defs id="defs3051">
    <style type="text/css" id="current-color-scheme">
      .ColorScheme-Text {
        color:#4d4d4d;
      }
      </style>
  </defs>
 <path 
     style="fill:currentColor;fill-opacity:1;stroke:none" 
     d="M7 11l-3 3 3 3 0-6zM15 11l0 6 3-3-3-3zM6.0234375 4.9941406L6.0234375 8.9941406 5.0234375 8.9941406 5.0234375 6.9941406 4.0234375 6.9941406 4.0234375 8.9941406 3.0234375 8.9941406 3.0234375 9.9941406 19.023438 9.9941406 19.023438 8.9941406 19 8.9941406 19 7 18 7 18 8.9941406 17.023438 8.9941406 17.023438 4.9941406 16.023438 4.9941406 16.023438 8.9941406 15.023438 8.9941406 15.023438 6.9941406 14.023438 6.9941406 14.023438 8.9941406 13.023438 8.9941406 13.023438 6.9941406 12.023438 6.9941406 12.023438 8.9941406 11.023438 8.9941406 11.023438 6.9941406 10.023438 6.9941406 10.023438 8.9941406 9.0234375 8.9941406 9.0234375 6.9941406 8.0234375 6.9941406 8.0234375 8.9941406 7.0234375 8.9941406 7.0234375 4.9941406 6.0234375 4.9941406zM3 11H4V17H3zM18 11H19V17H18z"
	 class="ColorScheme-Text"
     />
</svg>
